X:1
T: Glasgow Highlanders
C:
R:Strathspey
Q: 128
K:D
M:4/4
L:1/16
|:D3E F3G A4 A4|A3c d3e f6a2|g3e f3d e3c d3B|A3B A3F E3G F3E|
D3E F3G A4 A4|A3c d3e f6a2|g3e f3d e3c d3B|A3g f3e d3e f3g|
a4 g4 f6e2|d3f e3d B8|g3e f3d e3c d3B|((3c2f2e2) ((3d2c2B2) A8|
a4 g4 f6e2|d3f e3d B8|g3e f3d e4 a4|A4 B3c d8:|
